papirus/48x48/apps/google-play-music-desktop-player.svg

<?xml version="1.0" encoding="UTF-8" standalone="no"?>
<svg
   xmlns:dc="http://purl.org/dc/elements/1.1/"
   xmlns:cc="http://creativecommons.org/ns#"
   xmlns:rdf="http://www.w3.org/1999/02/22-rdf-syntax-ns#"
   xmlns:svg="http://www.w3.org/2000/svg"
   xmlns="http://www.w3.org/2000/svg"
   xmlns:sodipodi="http://sodipodi.sourceforge.net/DTD/sodipodi-0.dtd"
   xmlns:inkscape="http://www.inkscape.org/namespaces/inkscape"
   x="0px"
   y="0px"
   viewBox="0 0 48 48"
   hola_ext_inject="disabled"
   id="svg2"
   version="1.1"
   inkscape:version="0.91 r13725"
   sodipodi:docname="google-play-music-desktop-player.svg"
   width="48"
   height="48">
  <metadata
     id="metadata54">
    <rdf:RDF>
      <cc:Work
         rdf:about="">
        <dc:format>image/svg+xml</dc:format>
        <dc:type
           rdf:resource="http://purl.org/dc/dcmitype/StillImage" />
        <dc:title></dc:title>
      </cc:Work>
    </rdf:RDF>
  </metadata>
  <defs
     id="defs52" />
  <sodipodi:namedview
     pagecolor="#ffffff"
     bordercolor="#666666"
     borderopacity="1"
     objecttolerance="10"
     gridtolerance="10"
     guidetolerance="10"
     inkscape:pageopacity="0"
     inkscape:pageshadow="2"
     inkscape:window-width="1600"
     inkscape:window-height="853"
     id="namedview50"
     showgrid="false"
     inkscape:zoom="10.66"
     inkscape:cx="33.880258"
     inkscape:cy="21.850375"
     inkscape:window-x="0"
     inkscape:window-y="26"
     inkscape:window-maximized="1"
     inkscape:current-layer="svg2" />
  <linearGradient
     id="a"
     x1="98.985703"
     x2="98.985703"
     y1="183.6666"
     y2="7.9380002"
     gradientUnits="userSpaceOnUse"
     gradientTransform="matrix(0.2279924,0,0,0.22736347,1.4173528,2.1759583)">
    <stop
       offset="0"
       stop-color="#FFF"
       stop-opacity="0"
       id="stop11" />
    <stop
       offset="1"
       stop-color="#FFF"
       stop-opacity="0.1"
       id="stop13" />
  </linearGradient>
  <linearGradient
     id="b"
     x1="104.3169"
     x2="119.2413"
     y1="110.4006"
     y2="136.2504"
     gradientUnits="userSpaceOnUse"
     gradientTransform="matrix(0.22727311,0,0,0.22727311,1.4545378,2.1925796)">
    <stop
       offset="0"
       stop-color="#991700"
       stop-opacity="0"
       id="stop24" />
    <stop
       offset="1"
       stop-color="#991700"
       stop-opacity="0.1"
       id="stop26" />
  </linearGradient>
  <path
     style="fill:#eb4d27;fill-opacity:1"
     inkscape:connector-curvature="0"
     d="M 40.358455,21.751952 9.9442685,4.5178019 C 8.6447119,3.7902389 7.4819506,3.8584479 6.7751742,4.5405383 l 0,0 C 6.2735908,5.0180016 6,5.7910373 6,6.7914366 L 6,41.191529 c 0,1.000399 0.2963902,1.773436 0.7751742,2.250898 l 0,0 c 0.7295756,0.704828 1.8695377,0.773037 3.1690943,0.02274 L 40.358455,26.231013 c 2.188727,-1.227763 2.188727,-3.228562 0,-4.479061 z"
     id="path8" />
  <path
     style="fill:#ffffff;fill-opacity:1;opacity:0.2"
     d="M 8.1367188 4 C 7.5952368 4.0113682 7.1287788 4.1999704 6.7753906 4.5410156 C 6.2738072 5.0184789 6 5.7906163 6 6.7910156 L 6 7.7910156 C 6 6.7906163 6.2738072 6.0184789 6.7753906 5.5410156 C 7.482167 4.8589252 8.6438028 4.7900151 9.9433594 5.5175781 L 40.359375 22.751953 C 41.227819 23.248127 41.744547 23.862738 41.923828 24.5 C 42.197152 23.533665 41.6802 22.506588 40.359375 21.751953 L 9.9433594 4.5175781 C 9.2935811 4.1537966 8.6782007 3.9886318 8.1367188 4 z "
     id="path4226" />
  <path
     style="opacity:1;fill:#ffd739;fill-opacity:1;stroke:none;stroke-width:8;stroke-linecap:round;stroke-linejoin:round;stroke-miterlimit:4;stroke-dasharray:none;stroke-opacity:1"
     d="M 24 9 C 20.195575 9 16.732205 10.427581 14.087891 12.761719 A 15 15 0 0 0 14.082031 12.767578 C 13.71957 13.087877 13.372936 13.423822 13.042969 13.777344 A 15 15 0 0 0 12.964844 13.865234 C 12.663536 14.193137 12.376954 14.532918 12.105469 14.886719 A 15 15 0 0 0 11.978516 15.056641 C 11.727417 15.393601 11.490203 15.739729 11.267578 16.097656 A 15 15 0 0 0 11.138672 16.310547 C 10.928987 16.660487 10.733938 17.019022 10.552734 17.386719 A 15 15 0 0 0 10.427734 17.644531 C 10.2598 18.002458 10.1066 18.367545 9.9667969 18.740234 A 15 15 0 0 0 9.859375 19.033203 C 9.7333062 19.391995 9.6224086 19.756268 9.5234375 20.126953 A 15 15 0 0 0 9.4238281 20.511719 C 9.3454093 20.840419 9.2790394 21.173066 9.2226562 21.509766 A 15 15 0 0 0 9.1386719 22.0625 C 9.1026838 22.340853 9.0771514 22.621376 9.0566406 22.904297 A 15 15 0 0 0 9 24 C 9 24.469526 9.0281042 24.932113 9.0703125 25.390625 A 15 15 0 0 0 9.1035156 25.679688 C 9.1484537 26.082183 9.2090092 26.478866 9.2851562 26.871094 A 15 15 0 0 0 9.3183594 27.042969 C 9.5183952 28.012481 9.8121516 28.946617 10.189453 29.837891 A 15 15 0 0 0 10.189453 29.841797 C 10.779831 31.235473 11.575056 32.5197 12.537109 33.660156 C 14.03035 35.430303 15.917366 36.856852 18.074219 37.785156 C 18.122758 37.806047 18.172878 37.811503 18.222656 37.8125 A 15 15 0 0 0 19.224609 38.205078 L 37.449219 27.878906 C 37.69521 27.806746 37.913434 27.685682 38.103516 27.507812 L 38.644531 27.201172 A 15 15 0 0 0 38.912109 25.464844 C 38.93872 25.255221 38.947286 24.999434 38.960938 24.757812 A 15 15 0 0 0 39 24 C 39 15.715729 32.284271 9 24 9 z "
     id="path4216" />
  <circle
     style="fill:#ff8c00"
     cx="24"
     cy="24"
     id="circle21"
     r="9" />
  <path
     style="fill:#000000;fill-opacity:1;opacity:0.3"
     d="M 41.923828 23.5 C 41.744229 24.13497 41.227277 24.74362 40.359375 25.230469 L 9.9433594 42.464844 C 8.6438028 43.215141 7.5049662 43.148187 6.7753906 42.443359 C 6.2966066 41.965897 6 41.191805 6 40.191406 L 6 41.191406 C 6 42.191805 6.2966066 42.965897 6.7753906 43.443359 C 7.5049662 44.148187 8.6438028 44.215141 9.9433594 43.464844 L 40.359375 26.230469 C 41.679658 25.489858 42.196386 24.46882 41.923828 23.5 z "
     id="path4231" />
  <path
     style="opacity:0.2;fill:#ffffff;fill-opacity:1;stroke:none;stroke-width:8;stroke-linecap:round;stroke-linejoin:round;stroke-miterlimit:4;stroke-dasharray:none;stroke-opacity:1"
     d="M 24 9 C 20.195575 9 16.732205 10.427581 14.087891 12.761719 A 15 15 0 0 0 14.082031 12.767578 C 13.71957 13.087877 13.372936 13.423822 13.042969 13.777344 A 15 15 0 0 0 12.964844 13.865234 C 12.663536 14.193137 12.376954 14.532918 12.105469 14.886719 A 15 15 0 0 0 11.978516 15.056641 C 11.727417 15.393601 11.490203 15.739729 11.267578 16.097656 A 15 15 0 0 0 11.138672 16.310547 C 10.928987 16.660487 10.733938 17.019022 10.552734 17.386719 A 15 15 0 0 0 10.427734 17.644531 C 10.2598 18.002458 10.1066 18.367545 9.9667969 18.740234 A 15 15 0 0 0 9.859375 19.033203 C 9.7333062 19.391995 9.6224086 19.756268 9.5234375 20.126953 A 15 15 0 0 0 9.4238281 20.511719 C 9.3454093 20.840419 9.2790395 21.173066 9.2226562 21.509766 A 15 15 0 0 0 9.1386719 22.0625 C 9.1026838 22.340853 9.0771514 22.621376 9.0566406 22.904297 A 15 15 0 0 0 9 24 C 9 24.170794 9.018627 24.336764 9.0253906 24.505859 A 15 15 0 0 1 9.0566406 23.904297 C 9.0771506 23.621376 9.1026839 23.340853 9.1386719 23.0625 A 15 15 0 0 1 9.2226562 22.509766 C 9.2790395 22.173066 9.3454091 21.840419 9.4238281 21.511719 A 15 15 0 0 1 9.5234375 21.126953 C 9.6224086 20.756268 9.7333062 20.391995 9.859375 20.033203 A 15 15 0 0 1 9.9667969 19.740234 C 10.1066 19.367545 10.259845 19.002417 10.427734 18.644531 A 15 15 0 0 1 10.552734 18.386719 C 10.733938 18.019022 10.928987 17.660487 11.138672 17.310547 A 15 15 0 0 1 11.267578 17.097656 C 11.490203 16.739729 11.727417 16.393601 11.978516 16.056641 A 15 15 0 0 1 12.105469 15.886719 C 12.376954 15.532918 12.663536 15.193137 12.964844 14.865234 A 15 15 0 0 1 13.042969 14.777344 C 13.372936 14.423822 13.71957 14.087877 14.082031 13.767578 A 15 15 0 0 1 14.087891 13.761719 C 16.732205 11.427581 20.195575 10 24 10 C 32.114763 10 38.707517 16.44827 38.974609 24.498047 A 15 15 0 0 0 39 24 C 39 15.715729 32.284271 9 24 9 z "
     id="path4236" />
</svg>

<?xml version="1.0" encoding="UTF-8" standalone="no"?>
<svg id="svg2" xmlns:rdf="http://www.w3.org/1999/02/22-rdf-syntax-ns#" xmlns="http://www.w3.org/2000/svg" hola_ext_inject="disabled" height="48" viewBox="0 0 48 48" width="48" version="1.1" y="0px" x="0px" xmlns:cc="http://creativecommons.org/ns#" xmlns:dc="http://purl.org/dc/elements/1.1/">
 <metadata id="metadata54">
  <rdf:RDF>
   <cc:Work rdf:about="">
    <dc:format>image/svg+xml</dc:format>
    <dc:type rdf:resource="http://purl.org/dc/dcmitype/StillImage"/>
    <dc:title/>
   </cc:Work>
  </rdf:RDF>
 </metadata>
 <path id="path8" fill="#eb4d27" d="m40.358 21.752-30.414-17.234c-1.2993-0.7278-2.462-0.6596-3.1688 0.0225-0.5016 0.4775-0.7752 1.2505-0.7752 2.2509v34.401c0 1.0004 0.29639 1.7734 0.77517 2.2509 0.72958 0.70483 1.8695 0.77304 3.1691 0.02274l30.414-17.235c2.1887-1.2278 2.1887-3.2286 0-4.4791z"/>
 <path id="path4226" opacity=".2" d="m8.1367 4c-0.5415 0.0114-1.0079 0.2-1.3613 0.541-0.5016 0.4775-0.7754 1.2496-0.7754 2.25v1c0-1.0004 0.2738-1.7725 0.7754-2.25 0.7068-0.6821 1.8684-0.751 3.168-0.0234l30.416 17.234c0.869 0.496 1.386 1.111 1.565 1.748 0.273-0.966-0.244-1.993-1.565-2.748l-30.416-17.234c-0.6494-0.3642-1.2648-0.5294-1.8063-0.518z" fill="#fff"/>
 <path id="path4216" d="m24 9c-3.804 0-7.268 1.428-9.912 3.762a15 15 0 0 0 -0.006 0.006c-0.362 0.32-0.709 0.656-1.039 1.009a15 15 0 0 0 -0.078 0.088c-0.301 0.328-0.588 0.668-0.86 1.022a15 15 0 0 0 -0.126 0.17c-0.252 0.337-0.489 0.683-0.711 1.041a15 15 0 0 0 -0.129 0.213c-0.21 0.349-0.405 0.708-0.586 1.076a15 15 0 0 0 -0.125 0.258c-0.168 0.357-0.321 0.723-0.4612 1.095a15 15 0 0 0 -0.1074 0.293c-0.1261 0.359-0.237 0.723-0.336 1.094a15 15 0 0 0 -0.0996 0.385c-0.0784 0.328-0.1448 0.661-0.2011 0.998a15 15 0 0 0 -0.084 0.552c-0.036 0.279-0.0615 0.559-0.0821 0.842a15 15 0 0 0 -0.0566 1.096c0 0.47 0.0281 0.932 0.0703 1.391a15 15 0 0 0 0.0332 0.289c0.045 0.402 0.1055 0.799 0.1817 1.191a15 15 0 0 0 0.0332 0.172c0.2 0.969 0.4938 1.904 0.8706 2.795a15 15 0 0 0 0 0.004c0.591 1.393 1.386 2.678 2.348 3.818 1.493 1.77 3.38 3.197 5.537 4.125 0.049 0.021 0.099 0.027 0.149 0.027a15 15 0 0 0 1.002 0.393l18.224-10.326c0.246-0.072 0.464-0.193 0.655-0.371l0.541-0.307a15 15 0 0 0 0.267 -1.736c0.027-0.21 0.035-0.466 0.049-0.707a15 15 0 0 0 0.039 -0.758c0-8.284-6.716-15-15-15z" fill="#ffd739"/>
 <circle id="circle21" cy="24" cx="24" r="9" fill="#ff8c00"/>
 <path id="path4231" opacity=".2" d="m41.924 24.5c-0.1796 0.63497-0.69655 1.2436-1.5645 1.7305l-30.417 17.235c-1.2992 0.75-2.438 0.683-3.1676-0.022-0.4788-0.477-0.7754-1.251-0.7754-2.252v1c0 1.0004 0.29661 1.7745 0.77539 2.252 0.72958 0.70483 1.8684 0.77178 3.168 0.02149l30.416-17.234c1.3203-0.74061 1.837-1.7616 1.5645-2.7305z"/>
 <path id="path4236" opacity=".2" d="m24 9c-3.804 0-7.268 1.428-9.912 3.762a15 15 0 0 0 -0.006 0.006c-0.362 0.32-0.709 0.656-1.039 1.009a15 15 0 0 0 -0.078 0.088c-0.301 0.328-0.588 0.668-0.86 1.022a15 15 0 0 0 -0.126 0.17c-0.252 0.337-0.489 0.683-0.711 1.041a15 15 0 0 0 -0.129 0.213c-0.21 0.349-0.405 0.708-0.586 1.076a15 15 0 0 0 -0.125 0.258c-0.168 0.357-0.321 0.723-0.4612 1.095a15 15 0 0 0 -0.1074 0.293c-0.1261 0.359-0.237 0.723-0.336 1.094a15 15 0 0 0 -0.0996 0.385c-0.0784 0.328-0.1448 0.661-0.2011 0.998a15 15 0 0 0 -0.084 0.552c-0.036 0.279-0.0615 0.559-0.0821 0.842a15 15 0 0 0 -0.0566 1.096c0 0.171 0.0186 0.337 0.0254 0.506a15 15 0 0 1 0.0312 -0.602c0.0206-0.283 0.0461-0.563 0.0821-0.842a15 15 0 0 1 0.084 -0.552c0.0563-0.337 0.1227-0.67 0.2011-0.998a15 15 0 0 1 0.0996 -0.385c0.099-0.371 0.2099-0.735 0.336-1.094a15 15 0 0 1 0.1074 -0.293c0.1402-0.372 0.2932-0.738 0.4612-1.095a15 15 0 0 1 0.125 -0.258c0.181-0.368 0.376-0.727 0.586-1.076a15 15 0 0 1 0.129 -0.213c0.222-0.358 0.459-0.704 0.711-1.041a15 15 0 0 1 0.126 -0.17c0.272-0.354 0.559-0.694 0.86-1.022a15 15 0 0 1 0.078 -0.088c0.33-0.353 0.677-0.689 1.039-1.009a15 15 0 0 1 0.006 -0.006c2.644-2.334 6.108-3.762 9.912-3.762 8.115 0 14.708 6.448 14.975 14.498a15 15 0 0 0 0.025 -0.498c0-8.284-6.716-15-15-15z" fill="#fff"/>
</svg>
